X: 1

T: Barn Owl

M: 6/8

L: 1/8

R: jig

C: Paddy Fahy?

N: unnamed #3 in Killavil set - track 21, "Dervish: Live in Palma"

Z: Transcribed by Bill Black

K: D

A | DFA dfe | dcA GFG | AFD =cBc | ed^c A/2B/2cA |

DFA dfe | dcA GFG | AdB cAG | E2 D D2 :|

A | d2 e fed | c2 A A2 B | =cBc edc | B2 G GAB |

d2 e fed | c2 A EFG | AdB cAG | E2 D D2 :|

                       

BARNA LICA STONE, THE.  Irish. The tune is attributed to Irish fiddler Dan Cleary (1918-2004), of Ballinamere, County Offaly. Cleary played a number of instruments, including the uilleann pipes, piano and tin whistle, and was a member of a number of céili bands in the mid-20th century, notably the Ballinamere Céili Band, which won All-Ireland titles in the mid-1950’s (see Treoir, vol. 38, No. 2, 2006, pgs. 37-38).

 

BARNACLE (WALTZ), THE. Irish, English; Waltz or Redowa. D Major. Standard tuning. AABBCC: AABBC (Kennedy). A version of this tune is known in County Down, Ireland, as “Jackie Donnan’s Mazurka.” Kennedy (Fiddlers Tune Book), vol. 2, 1954; pg. 33. Raven (English Country Dance Tunes), 1984; pg. 132. Roche Collection, 1982; vol. III, pg. 50, No. 152.

                       

BARNARD'S WILL. English, Reel. England, Northumberland. G Major or G Mixolydian. Standard tuning. AABB. "Title unchanged (from Vicker's original), probably a corruption of 'St. Bernard's Well'" (Seattle). Seattle (William Vickers), 1987, Part 3; No. 428. Johnson, Scottish Fiddle Music, 1984; No. 73.

                       

BARNDANCE. A two-hand dance form in Ireland, thought to have been originally introduced from England, where they still exist.. Caoimhin Mac Aoidh says: “Barn dances and Germans - These are the same thing. The term German seems to be restricted to west and central Donegal. They are in 4/4 time and played at the speed of a hornpipe. Their characteristic is in the rhythm of the tune. Typical barn dances have a recurring set of two or sometimes three crochets (quarter notes) at the end of  a number bars which give it a very determined rhythm. Hornpipes can be easily pared down to make a German. As for their geographic spread, see my comments above of highlands though barn dances are appearing to be on the increase outside Ulster.”

                       

BARNDANCE POLKA. American, Polka. C Major (‘A’ part) & G Major (‘B’ part). Standard tuning. AB. A Midwestern tune, apparently. County CO-CD-2729, Art Stamper – “Goodbye Girls I’m Going to Boston” (2000). Sunbeam MFC-10, Hoosier Hot Shots – “Are You Ready Hezzie?” (c. 1975). 

